assets/icons/arrow-down.svg

<svg width="25" height="25" viewBox="0 0 25 25" fill="none" xmlns="http://www.w3.org/2000/svg">
<path d="M11.3333 19.6664V5.66638C11.3333 5.1141 11.7811 4.66638 12.3333 4.66638C12.8856 4.66638 13.3333 5.1141 13.3333 5.66638V19.6664C13.3333 20.2187 12.8856 20.6664 12.3333 20.6664C11.7811 20.6664 11.3333 20.2187 11.3333 19.6664Z" fill="white"/>
<path d="M18.7025 11.891C19.0953 11.5707 19.6743 11.5932 20.0404 11.9594C20.4065 12.3255 20.4291 12.9045 20.1087 13.2973L20.0404 13.3734L13.0404 20.3734C12.6498 20.7639 12.0168 20.7639 11.6263 20.3734L4.62631 13.3734L4.55795 13.2973C4.2376 12.9045 4.26019 12.3255 4.62631 11.9594C4.99242 11.5932 5.57142 11.5707 5.9642 11.891L6.04037 11.9594L12.3333 18.2523L18.6263 11.9594L18.7025 11.891Z" fill="white"/>
</svg>

<svg xmlns="http://www.w3.org/2000/svg" width="25" height="25" fill="none" viewBox="0 0 25 25"><path fill="#fff" d="M11.333 19.666v-14a1 1 0 0 1 2 0v14a1 1 0 1 1-2 0"/><path fill="#fff" d="M18.703 11.891a1 1 0 0 1 1.406 1.406l-.069.076-7 7a1 1 0 0 1-1.414 0l-7-7-.068-.076a1 1 0 0 1 1.406-1.406l.076.068 6.293 6.293 6.293-6.293z"/></svg>
